X:1
T:Maple Leaf Two-Step
C:Ward Allen
R:2-step
M:4/4
L:1/8
Z:abc by Bruce Osborne - bosborne@kos.net
K:C
e2 f2 ^f2|:g4 a4|ag e2 c4|e4 dc E2|G6 c2|
B2 G2 D2 E2|F6 EF|A2 G2 E2 G2|A2 G4 ef|
g4 a4|ag e2 c4|e4 dc E2|G6 c2|
B2 G2 D2 E2|F4 A4|G2 Bd gdBd|cBcd c4:|
|:G6 ^FG|A2 G2 E2 G2|c4 -cGca|g6 ^f2|
f3 g f2 d2|B3 c B2 A2|G3 A G2 F2|E2 G2 ^F2 A2|
G6 ^FG|A2 G2 E2 G2|c4 -cGca|g6 ^f2|
f3 g f2 d2|B3 c B2 A2|G2 Bd gdBd|cBcd c4:|
